X:1
T:San Francisco, 76.76 D
T:John Harrison Tenney, 1890
T:San Francisco, 76.76 D
T:Public Domain
C:John Harrison Tenney, 1890
Z:Public Domain
%%score ( 1 2 ) ( 3 4 )
L:1/8
M:4/4
K:A
V:1 treble 
V:2 treble 
V:3 bass 
V:4 bass 
V:1
 [EA]2 [DG]>[DG] [EA]2 (3(Bcd) | [Ec]4 [EB]2 (e>d) | [Ec]2 (BA) [EA]2 [DG]2 | [CA]6 [Ec]2 | %4
 [DB]2 [CA]2 [Ed]2 [Ec]2 | [Ec]4 [EB]2 [Ee]2 | [Ec]2 ([EB][FA]) [EG]2 [^DF]2 | E6 E2 | %8
 [Ed]3 [Ec] [Ed]2 [EB]2 | (c3 d) [Ee]2 [Ec]2 | [Ed]2 [Ed]2 [Ed]2 [Ed]2 | [Ec]6 E2 | %12
 [EA]2 [EB]2 [Ec]2 [Fd]2 | [=Ge]4 (ed)(AB) | [Ec]3 [Ed] [Ec]2 [DB]2 | [CA]8 |] %16
V:2
 x6 F2 | x6 E2 | x2 F2 x4 | x8 | x8 | x8 | x8 | E6 E2 | x8 | E4 x4 | x8 | x6 E2 | x8 | x4 F2 F2 | %14
 x8 | x8 |] %16
V:3
 [A,,C]2 [B,,B,]>[B,,B,] [C,A,]2 [D,A,]2 | [E,A,]4 [E,G,]2 [G,B,]2 | A,2 [D,D]2 [E,C]2 [E,B,]2 | %3
 [A,,A,]6 [A,,A,]2 | [E,G,]2 [F,A,]2 [G,B,]2 A,2 | [E,A,]4 [E,G,]2 [G,B,]2 | %6
 A,2 ([G,B,][A,C]) B,2 [B,,A,]2 | [E,G,]6 E,2 | [E,B,]3 [E,^A,] [E,B,]2 [E,G,]2 | %9
 (A,3 B,) [A,C]2 [A,,A,]2 | [E,G,]2 [F,A,]2 [G,B,]2 [E,G,]2 | (A,2 E,2 A,,2) E,2 | %12
 [C,A,]2 [E,G,]2 A,2 [F,A,]2 | [C,A,]4 [D,A,]2 [D,A,]2 | [E,A,]3 [E,B,] [E,A,]2 [E,G,]2 | %15
 [A,,A,]8 |] %16
V:4
 x8 | x8 | A,2 x6 | x8 | x6 A,2 | x8 | A,2 B,2 x4 | x6 E,2 | x8 | A,4 x4 | x8 | A,6 E,2 | %12
 x4 A,2 x2 | x8 | x8 | x8 |] %16

